deployments/warp_routes/CARR/logo.svg

<svg width="250" height="250" viewBox="0 0 250 250" fill="none" xmlns="http://www.w3.org/2000/svg">
<circle cx="125" cy="125" r="125" fill="black"/>
<path d="M128.469 74.7065H121.537V177.589H128.469V74.7065Z" fill="#00B5E2"/>
<path d="M124.976 214.259C120.438 214.259 115.911 213.237 112.508 211.243L105.779 207.341L57.1418 179.051C50.2523 175.041 44.6426 165.258 44.6426 157.227V92.7833C44.6426 84.7581 50.2523 74.9536 57.1418 70.9705L112.508 38.7512C119.393 34.7359 130.607 34.7359 137.502 38.7512L192.884 70.9759C199.763 74.9858 205.357 84.7688 205.357 92.7833V157.227C205.357 165.253 199.747 175.041 192.858 179.051L135.187 212.351L135.054 212.404C131.841 213.66 128.421 214.29 124.976 214.259ZM125.002 40.0144C121.222 40.0144 117.452 40.8315 114.641 42.4655L59.2748 74.7171C53.6544 77.9584 48.9085 86.2416 48.9085 92.7833V157.227C48.9085 163.769 53.6544 172.058 59.2748 175.326L107.912 203.616L114.641 207.518C119.542 210.372 127.546 210.776 133.305 208.47L190.751 175.32C196.366 172.058 201.112 163.769 201.112 157.227V92.7833C201.112 86.247 196.377 77.9637 190.773 74.6956L135.369 42.4709C132.558 40.8368 128.778 40.0144 125.002 40.0144Z" fill="#00B5E2"/>
<path d="M161.886 88.8057L146.529 107.082H114.289C109.271 107.082 107.357 109.42 107.357 114.016V142.322H107.304C107.256 142.322 102.099 142.789 97.8066 140.424C93.2634 137.919 89.5786 133.006 88.6348 128.169L88.1016 125.089C88.1016 125.089 88.1016 125.089 88.1016 125.062V108.092C88.1016 102.738 89.392 98.1855 91.9729 94.4336C94.5538 90.6816 97.7426 88.8057 101.539 88.8057H161.886Z" fill="#00B5E2"/>
<path d="M142.408 144.472L127.179 162.21H101.551C97.7543 162.21 94.5655 160.336 91.9846 156.587C89.4037 152.839 88.1133 148.284 88.1133 142.923V131.394C89.7598 136.067 93.019 139.988 97.2957 142.44C100.02 143.836 103.038 144.548 106.094 144.515C106.841 144.515 107.31 144.472 107.358 144.466L142.408 144.472Z" fill="#00B5E2"/>
</svg>

<svg xmlns="http://www.w3.org/2000/svg" width="250" height="250" fill="none" viewBox="0 0 250 250"><circle cx="125" cy="125" r="125" fill="#000"/><path fill="#00B5E2" d="M128.469 74.707h-6.932v102.882h6.932z"/><path fill="#00B5E2" d="M124.976 214.259c-4.538 0-9.065-1.022-12.468-3.016l-6.729-3.902-48.637-28.29c-6.89-4.01-12.5-13.793-12.5-21.824V92.783c0-8.025 5.61-17.83 12.5-21.812l55.366-32.22c6.885-4.015 18.099-4.015 24.994 0l55.382 32.225c6.879 4.01 12.473 13.793 12.473 21.807v64.444c0 8.026-5.61 17.814-12.499 21.824l-57.671 33.3-.133.053a27 27 0 0 1-10.078 1.855m.026-174.245c-3.78 0-7.55.817-10.361 2.451L59.275 74.718c-5.62 3.241-10.367 11.525-10.367 18.066v64.444c0 6.542 4.746 14.831 10.367 18.099l48.637 28.29 6.729 3.902c4.901 2.854 12.905 3.258 18.664.952l57.446-33.15c5.615-3.262 10.361-11.551 10.361-18.093V92.783c0-6.536-4.735-14.82-10.339-18.087L135.369 42.47c-2.811-1.634-6.591-2.457-10.367-2.457"/><path fill="#00B5E2" d="m161.886 88.806-15.357 18.276h-32.24c-5.018 0-6.932 2.338-6.932 6.934v28.306h-.053c-.048 0-5.205.467-9.497-1.898-4.544-2.505-8.228-7.418-9.172-12.255l-.533-3.08v-16.997q0-8.03 3.87-13.658 3.872-5.628 9.567-5.628z"/><path fill="#00B5E2" d="m142.408 144.472-15.229 17.738h-25.628q-5.696 0-9.566-5.623-3.872-5.622-3.872-13.664v-11.529a20.63 20.63 0 0 0 9.183 11.046 18.84 18.84 0 0 0 8.798 2.075c.747 0 1.216-.043 1.264-.049z"/></svg>
